casedrop/img/errors/despair.svg

<svg width="139" height="139" viewBox="0 0 139 139" fill="none" xmlns="http://www.w3.org/2000/svg">
<path d="M66.56 22.1865C34.59 22.1865 8.66111 48.1154 8.66111 80.0854C8.66111 112.055 34.59 137.931 66.56 137.931C98.53 137.931 124.405 112.002 124.405 80.0854C124.405 48.1688 98.4765 22.1865 66.56 22.1865ZM29.0834 71.9592H44.5338L36.6749 64.5815L40.4173 60.6254L53.248 72.7077L51.3769 77.4123H29.0834V71.9592ZM90.5642 112.911C88.5861 122.908 78.375 116.118 74.5792 113.499C63.9938 106.121 59.5565 116.279 54.2103 118.738C48.7038 121.304 41.9142 117.081 42.3419 109.062C42.93 98.5831 53.4084 93.6646 61 96.2842C67.8965 98.6365 70.9438 102.432 76.7177 103.181C81.4757 103.822 92.168 104.945 90.5642 112.911ZM103.983 77.3588H81.6896L79.8184 72.6542L92.6492 60.5719L96.3915 64.5281L88.5327 71.9058H103.983V77.3588ZM109.49 32.6115L103.662 27.4258L122.32 6.36191L128.148 11.5477L109.49 32.6115ZM119.433 43.6246L114.889 37.2627L131.035 25.7684L135.579 32.1304L119.433 43.6246ZM26.4638 28.2277L14.0073 7.59152L20.69 3.52844L33.1465 24.1111L26.4638 28.2277ZM98.5834 1.06921C101.738 1.06921 104.357 3.63537 104.357 6.84306C104.357 10.0508 101.791 12.6169 98.5834 12.6169C95.4292 12.6169 92.8096 10.0508 92.8096 6.84306C92.8096 3.63537 95.3757 1.06921 98.5834 1.06921ZM10.2115 23.3092C13.9538 23.3092 17.0011 26.3565 17.0011 30.0988C17.0011 33.8411 13.9538 36.8884 10.2115 36.8884C6.46918 36.8884 3.42188 33.8411 3.42188 30.0988C3.42188 26.3565 6.46918 23.3092 10.2115 23.3092Z" fill="white"/>
</svg>

<svg width="139" height="139" fill="none" xmlns="http://www.w3.org/2000/svg"><path d="M66.56 22.186c-31.97 0-57.899 25.93-57.899 57.9 0 31.969 25.929 57.845 57.899 57.845 31.97 0 57.845-25.929 57.845-57.846 0-31.916-25.928-57.898-57.845-57.898zM29.083 71.96h15.45l-7.858-7.377 3.742-3.957 12.831 12.083-1.871 4.704H29.083V71.96zm61.481 40.952c-1.978 9.997-12.189 3.207-15.985.588-10.585-7.378-15.022 2.78-20.369 5.239-5.506 2.566-12.296-1.657-11.868-9.676C42.93 98.583 53.408 93.665 61 96.284c6.897 2.352 9.944 6.148 15.718 6.897 4.758.641 15.45 1.764 13.846 9.73zm13.419-35.552H81.69l-1.872-4.705L92.65 60.572l3.742 3.956-7.858 7.378h15.45v5.453zm5.507-44.747l-5.828-5.186L122.32 6.362l5.828 5.186-18.658 21.064zm9.943 11.013l-4.544-6.362 16.146-11.495 4.544 6.362-16.146 11.495zm-92.97-15.397L14.008 7.592l6.683-4.064 12.457 20.583-6.683 4.117zM98.583 1.07c3.155 0 5.774 2.566 5.774 5.774a5.75 5.75 0 01-5.774 5.774c-3.154 0-5.773-2.566-5.773-5.774a5.75 5.75 0 015.773-5.774zM10.212 23.31c3.742 0 6.79 3.047 6.79 6.79 0 3.742-3.048 6.79-6.79 6.79-3.743 0-6.79-3.048-6.79-6.79s3.047-6.79 6.79-6.79z" fill="#fff"/></svg>
